X:1
T:The Farley Bridge
C:Duncan Chisholm
D:Duncan Chisholm, "Farrar", 2008
I:Joué en Eb sur "Farrar". Transposé en D ici.
M:2/2
K:D
| Addf edef | gff/f/f dAAG | AddA ffAe | eddf gBBA |
  AddA deef | gff/f/f dGGA | edBe- efed | BAA2- A4 ||
  Addf edef | gff/f/f dAAG | AddA ffAe | eddf gfed |
  AddA deef | gff/f/f dGGA | edBe- efed | BAA2- A2ef
|: gffd ddBg- | gffd ddAG | AddA ffAe | edde effg |
   gffd ddBg- | gffd ddBA | edBe- efed |1 BAA2- A2ef :|2 BAA2- A4 ||